Numix-GalliumOS/64/mimetypes/application-x-ms-dos-executable.svg

<svg xmlns="http://www.w3.org/2000/svg" xmlns:xlink="http://www.w3.org/1999/xlink" width="64px" height="64px" viewBox="0 0 64 64" version="1.1">
<g id="surface1">
<path style=" stroke:none;fill-rule:nonzero;fill:rgb(93.333333%,93.333333%,93.333333%);fill-opacity:1;" d="M 10.742188 8 C 9.375 8 8 9.375 8 10.742188 L 8 53.335938 C 8 54.625 9.375 56 10.664062 56 L 53.335938 56 C 54.625 56 56 54.625 56 53.335938 L 56 10.664062 C 56 9.375 54.625 8 53.335938 8 Z M 10.742188 8 "/>
<path style=" stroke:none;fill-rule:nonzero;fill:rgb(53.333333%,53.333333%,53.333333%);fill-opacity:1;" d="M 16 32 L 23.109375 24.890625 L 30.21875 32 L 23.109375 39.109375 Z M 16 32 "/>
<path style=" stroke:none;fill-rule:nonzero;fill:rgb(53.333333%,53.333333%,53.333333%);fill-opacity:1;" d="M 24.890625 23.109375 L 32 16 L 39.109375 23.109375 L 32 30.21875 Z M 24.890625 23.109375 "/>
<path style=" stroke:none;fill-rule:nonzero;fill:rgb(53.333333%,53.333333%,53.333333%);fill-opacity:1;" d="M 33.78125 32 L 40.890625 24.890625 L 48 32 L 40.890625 39.109375 Z M 33.78125 32 "/>
<path style=" stroke:none;fill-rule:nonzero;fill:rgb(53.333333%,53.333333%,53.333333%);fill-opacity:1;" d="M 24.890625 40.890625 L 32 33.78125 L 39.109375 40.890625 L 32 48 Z M 24.890625 40.890625 "/>
<path style=" stroke:none;fill-rule:nonzero;fill:rgb(66.666667%,66.666667%,66.666667%);fill-opacity:1;" d="M 11.335938 8 C 10.445312 8 9.765625 8 8.867188 8.851562 C 8 9.640625 8 10.445312 8 11.335938 L 8 52.75 C 8 53.617188 7.980469 54.386719 8.847656 55.136719 C 9.84375 56 10.382812 56 11.25 56 L 52.75 56 C 53.617188 56 54.226562 56 55.195312 55.125 C 56.019531 54.378906 56 53.617188 56 52.75 L 56 11.25 C 56 10.382812 55.984375 9.652344 55.164062 8.859375 C 54.273438 8 53.617188 8 52.75 8 Z M 12 10 L 52.042969 10 C 52.433594 10 52.941406 10.234375 53.332031 10.625 C 53.722656 11.015625 53.957031 11.523438 53.957031 11.914062 L 53.957031 52.042969 C 53.957031 52.433594 53.722656 52.941406 53.332031 53.332031 C 52.941406 53.722656 52.433594 53.957031 52.042969 53.957031 L 11.957031 53.957031 C 11.566406 53.957031 11.058594 53.722656 10.667969 53.332031 C 10.277344 52.941406 10.042969 52.433594 10.042969 52.042969 L 10 12 C 10 11.554688 10.226562 11.015625 10.625 10.625 C 11.015625 10.226562 11.554688 10 12 10 Z M 12 10 "/>
</g>
</svg>

<svg xmlns="http://www.w3.org/2000/svg" viewBox="0 0 64 64">
 <g>
  <path d="m 10.742 8 c -1.367 0 -2.742 1.375 -2.742 2.742 l 0 42.594 c 0 1.289 1.375 2.664 2.664 2.664 l 42.672 0 c 1.289 0 2.664 -1.375 2.664 -2.664 l 0 -42.672 c 0 -1.289 -1.375 -2.664 -2.664 -2.664 m -42.594 0" style="fill:#ededed;fill-opacity:1;stroke:none;fill-rule:nonzero"/>
  <path d="m 16 32 l 7.109 -7.109 l 7.109 7.109 l -7.109 7.109 m -7.109 -7.109" style="fill:#878787;fill-opacity:1;stroke:none;fill-rule:nonzero"/>
  <path d="m 24.891 23.11 l 7.109 -7.109 l 7.109 7.109 l -7.109 7.109 m -7.109 -7.109" style="fill:#878787;fill-opacity:1;stroke:none;fill-rule:nonzero"/>
  <path d="m 33.781 32 l 7.109 -7.109 l 7.109 7.109 l -7.109 7.109 m -7.109 -7.109" style="fill:#878787;fill-opacity:1;stroke:none;fill-rule:nonzero"/>
  <path d="m 24.891 40.891 l 7.109 -7.109 l 7.109 7.109 l -7.109 7.109 m -7.109 -7.109" style="fill:#878787;fill-opacity:1;stroke:none;fill-rule:nonzero"/>
  <path d="m 11.336 8 c -0.891 0 -1.57 0 -2.469 0.852 c -0.867 0.789 -0.867 1.594 -0.867 2.484 l 0 41.41 c 0 0.867 -0.02 1.637 0.848 2.387 c 0.996 0.863 1.535 0.863 2.402 0.863 l 41.5 0 c 0.867 0 1.477 0 2.445 -0.875 c 0.824 -0.746 0.805 -1.508 0.805 -2.375 l 0 -41.5 c 0 -0.867 -0.016 -1.598 -0.836 -2.391 c -0.891 -0.859 -1.547 -0.859 -2.414 -0.859 m -40.75 2 l 40.04 0 c 0.391 0 0.898 0.234 1.289 0.625 c 0.391 0.391 0.625 0.898 0.625 1.289 l 0 40.13 c 0 0.391 -0.234 0.898 -0.625 1.289 c -0.391 0.391 -0.898 0.625 -1.289 0.625 l -40.09 0 c -0.391 0 -0.898 -0.234 -1.289 -0.625 c -0.391 -0.391 -0.625 -0.898 -0.625 -1.289 l -0.043 -40.04 c 0 -0.445 0.227 -0.984 0.625 -1.375 c 0.391 -0.398 0.93 -0.625 1.375 -0.625 m 0 0" style="fill:#aaa;fill-opacity:1;stroke:none;fill-rule:nonzero"/>
 </g>
</svg>
